evolvere-2-blue-mono/apps/24/octopi.svg

<?xml version="1.0" encoding="UTF-8"?>
<!-- Created with Inkscape (http://www.inkscape.org/) -->
<svg width="24" height="24" version="1.1" xmlns="http://www.w3.org/2000/svg" xmlns:cc="http://creativecommons.org/ns#" xmlns:dc="http://purl.org/dc/elements/1.1/" xmlns:rdf="http://www.w3.org/1999/02/22-rdf-syntax-ns#">
	<metadata>
		<rdf:RDF>
			<cc:Work rdf:about="">
				<dc:format>image/svg+xml</dc:format>
				<dc:type rdf:resource="http://purl.org/dc/dcmitype/StillImage"/>
			</cc:Work>
		</rdf:RDF>
	</metadata>
	<defs>
		<style id="current-color-scheme" type="text/css">.ColorScheme-Text {
				color:#090d11;
			}
			.ColorScheme-Background{
				color:#ffffff;
			}</style>
	</defs>
	<path class="ColorScheme-Text" d="m12 4c-3.0376 0-5.5 2.4624-5.5 5.5 0 1.408 0.53595 2.6832 1.4062 3.6562l-1.6562 6.3438c-0.31893 1.1903 1.6156 1.616 1.9062 0.53125l1.5-5.5625c0.42 0.1976 0.87225 0.3481 1.3438 0.4375v6.0938c0 0.96573 2 1.0008 2 0v-6.0938c0.4924-0.094 0.96975-0.25635 1.4062-0.46875l1.5625 5.5938c0.25683 0.95852 2.1776 0.36481 1.9375-0.53125l-1.8125-6.3438c0.8702-0.973 1.4062-2.2482 1.4062-3.6562 0-3.0376-2.4624-5.5-5.5-5.5zm-2 4c0.8284 0 1.5 0.6716 1.5 1.5s-0.6716 1.5-1.5 1.5-1.5-0.6716-1.5-1.5 0.6716-1.5 1.5-1.5zm4 0c0.8284 0 1.5 0.6716 1.5 1.5s-0.6716 1.5-1.5 1.5-1.5-0.6716-1.5-1.5 0.6716-1.5 1.5-1.5zm-3.5 1c-0.2761 0-0.5 0.2239-0.5 0.5s0.2239 0.5 0.5 0.5 0.5-0.2239 0.5-0.5-0.2239-0.5-0.5-0.5zm4 0c-0.2761 0-0.5 0.2239-0.5 0.5s0.2239 0.5 0.5 0.5 0.5-0.2239 0.5-0.5-0.2239-0.5-0.5-0.5z" style="fill-opacity:.75;fill:currentColor"/>
	<path class="ColorScheme-Background" d="m12 2.8438c-3.6591 0-6.6562 2.9972-6.6562 6.6562 0 1.4343 0.5385 2.7291 1.3125 3.8125l-1.5312 5.9062-0.28125 1.0938 1.0938 0.28125 0.3125-1.0938 1.6562-6.3438c-0.8703-0.973-1.4062-2.2482-1.4062-3.6562 0-3.0376 2.4624-5.5 5.5-5.5s5.5 2.4624 5.5 5.5c0 1.408-0.53605 2.6832-1.4062 3.6562l2.125 7.4375 1.125-0.28125-0.34375-1.125-1.6875-5.875c0.7796-1.0858 1.3438-2.3723 1.3438-3.8125 0-3.6591-2.9972-6.6562-6.6562-6.6562zm-2 5.1562c-0.8284 0-1.5 0.6716-1.5 1.5s0.6716 1.5 1.5 1.5 1.5-0.6716 1.5-1.5-0.6716-1.5-1.5-1.5zm4 0c-0.8284 0-1.5 0.6716-1.5 1.5s0.6716 1.5 1.5 1.5 1.5-0.6716 1.5-1.5-0.6716-1.5-1.5-1.5zm-3.5 1c0.2761 0 0.5 0.2239 0.5 0.5s-0.2239 0.5-0.5 0.5c-0.17677 0-0.31734-0.1115-0.40625-0.25-0.016244-0.023093-0.039367-0.046048-0.0625-0.0625-0.082252-0.058496-0.1875-0.084788-0.1875-0.1875s0.10527-0.129 0.1875-0.1875c0.01111-0.026261 0.04726-0.038758 0.0625-0.0625 0.088915-0.1385 0.22948-0.25 0.40625-0.25zm4 0c0.2761 0 0.5 0.2239 0.5 0.5s-0.2239 0.5-0.5 0.5c-0.17677 0-0.31734-0.1115-0.40625-0.25-0.016244-0.023093-0.039367-0.046048-0.0625-0.0625-0.082252-0.058496-0.1875-0.084788-0.1875-0.1875s0.10527-0.129 0.1875-0.1875c0.01111-0.026261 0.04726-0.038758 0.0625-0.0625 0.088915-0.1385 0.22948-0.25 0.40625-0.25zm-4.5 5.5938-1.25 7.4062h1.25l1-7.0938zm4 0-1 0.3125 1 7.0938h1.25z" style="fill-opacity:.5;fill:currentColor"/>
</svg>

<?xml version="1.0" encoding="UTF-8" standalone="no"?>
<!-- Created with Inkscape (http://www.inkscape.org/) -->

<svg
   xmlns:dc="http://purl.org/dc/elements/1.1/"
   xmlns:cc="http://creativecommons.org/ns#"
   xmlns:rdf="http://www.w3.org/1999/02/22-rdf-syntax-ns#"
   xmlns:svg="http://www.w3.org/2000/svg"
   xmlns="http://www.w3.org/2000/svg"
   xmlns:sodipodi="http://sodipodi.sourceforge.net/DTD/sodipodi-0.dtd"
   xmlns:inkscape="http://www.inkscape.org/namespaces/inkscape"
   sodipodi:docname="octopi.svg"
   inkscape:version="0.48.3.1 r9886"
   version="1.1"
   id="svg13094"
   height="24"
   width="24">
  <sodipodi:namedview
     id="base"
     pagecolor="#ffffff"
     bordercolor="#666666"
     borderopacity="1.0"
     inkscape:pageopacity="0.0"
     inkscape:pageshadow="2"
     inkscape:zoom="33.131501"
     inkscape:cx="12.776341"
     inkscape:cy="10.890142"
     inkscape:document-units="px"
     inkscape:current-layer="layer1"
     showgrid="true"
     inkscape:snap-bbox="true"
     inkscape:bbox-paths="true"
     inkscape:bbox-nodes="true"
     inkscape:snap-bbox-edge-midpoints="true"
     inkscape:snap-bbox-midpoints="true"
     inkscape:object-paths="true"
     inkscape:snap-intersection-paths="true"
     inkscape:object-nodes="true"
     inkscape:snap-smooth-nodes="true"
     inkscape:snap-midpoints="true"
     inkscape:snap-object-midpoints="true"
     inkscape:snap-center="true"
     showguides="false"
     inkscape:guide-bbox="true"
     inkscape:window-width="1920"
     inkscape:window-height="1027"
     inkscape:window-x="-10"
     inkscape:window-y="31"
     inkscape:window-maximized="1"
     inkscape:snap-global="true"
     fit-margin-top="0"
     fit-margin-left="0"
     fit-margin-right="0"
     fit-margin-bottom="0"
     showborder="true"
     inkscape:showpageshadow="false">
    <sodipodi:guide
       orientation="0,1"
       position="7904.3893,1688.6364"
       id="guide16149" />
    <sodipodi:guide
       orientation="0,1"
       position="7677.2464,1639.6277"
       id="guide16151" />
    <sodipodi:guide
       orientation="0,1"
       position="7742.9606,1664.132"
       id="guide16153" />
    <sodipodi:guide
       orientation="0,1"
       position="7736.5321,1583.9848"
       id="guide17725" />
    <sodipodi:guide
       orientation="1,0"
       position="8234.0303,1192.115"
       id="guide9456" />
    <sodipodi:guide
       orientation="0,1"
       position="8058.2804,1557.1639"
       id="guide9458" />
    <sodipodi:guide
       orientation="0,1"
       position="7829.5106,1502.2585"
       id="guide9468" />
    <sodipodi:guide
       orientation="0,1"
       position="7854.0304,1523.6285"
       id="guide9470" />
    <sodipodi:guide
       orientation="1,0"
       position="7722.0304,1237.629"
       id="guide11159" />
    <sodipodi:guide
       orientation="1,0"
       position="8035.0616,1501.6635"
       id="guide13980" />
    <sodipodi:guide
       id="guide3972"
       position="6181.0305,126.62899"
       orientation="0,1" />
    <sodipodi:guide
       id="guide3974"
       position="6361.0305,-1.3710498"
       orientation="1,0" />
    <sodipodi:guide
       id="guide3976"
       position="6055.0305,-236.37095"
       orientation="0,1" />
    <sodipodi:guide
       id="guide3978"
       position="6028.0305,-95.37105"
       orientation="1,0" />
    <sodipodi:guide
       id="guide4287"
       position="1377.8013,1369.629"
       orientation="1,0" />
    <sodipodi:guide
       id="guide4289"
       position="1377.8013,1369.629"
       orientation="0,1" />
    <inkscape:grid
       type="xygrid"
       id="grid3918"
       empspacing="5"
       visible="true"
       enabled="true"
       snapvisiblegridlinesonly="true"
       originx="0.00017297285px"
       originy="71.999982px" />
  </sodipodi:namedview>
  <defs
     id="defs13096" />
  <metadata
     id="metadata13099">
    <rdf:RDF>
      <cc:Work
         rdf:about="">
        <dc:format>image/svg+xml</dc:format>
        <dc:type
           rdf:resource="http://purl.org/dc/dcmitype/StillImage" />
        <dc:title />
      </cc:Work>
    </rdf:RDF>
  </metadata>
  <g
     inkscape:label="Camada 1"
     inkscape:groupmode="layer"
     id="layer1"
     transform="translate(9368.675,-1536.5613)">
    <path
       id="path3823"
       d="m -9356.675,1540.5613 c -3.0376,0 -5.5,2.4624 -5.5,5.5 0,1.408 0.536,2.6833 1.4063,3.6563 l -1.6563,6.3437 1.9063,0.5313 1.5,-5.5625 c 0.42,0.1976 0.8722,0.3481 1.3437,0.4375 l 0,6.0937 2,0 0,-6.0937 c 0.4924,-0.094 0.9698,-0.2564 1.4063,-0.4688 l 1.5625,5.5938 1.9375,-0.5313 -1.8125,-6.3437 c 0.8702,-0.973 1.4062,-2.2483 1.4062,-3.6563 0,-3.0376 -2.4624,-5.5 -5.5,-5.5 z m -2,4 c 0.8284,0 1.5,0.6716 1.5,1.5 0,0.8284 -0.6716,1.5 -1.5,1.5 -0.8284,0 -1.5,-0.6716 -1.5,-1.5 0,-0.8284 0.6716,-1.5 1.5,-1.5 z m 4,0 c 0.8284,0 1.5,0.6716 1.5,1.5 0,0.8284 -0.6716,1.5 -1.5,1.5 -0.8284,0 -1.5,-0.6716 -1.5,-1.5 0,-0.8284 0.6716,-1.5 1.5,-1.5 z m -3.5,1 c -0.2761,0 -0.5,0.2239 -0.5,0.5 0,0.2761 0.2239,0.5 0.5,0.5 0.2761,0 0.5,-0.2239 0.5,-0.5 0,-0.2761 -0.2239,-0.5 -0.5,-0.5 z m 4,0 c -0.2761,0 -0.5,0.2239 -0.5,0.5 0,0.2761 0.2239,0.5 0.5,0.5 0.2761,0 0.5,-0.2239 0.5,-0.5 0,-0.2761 -0.2239,-0.5 -0.5,-0.5 z"
       style="font-size:medium;font-style:normal;font-variant:normal;font-weight:normal;font-stretch:normal;text-indent:0;text-align:start;text-decoration:none;line-height:normal;letter-spacing:normal;word-spacing:normal;text-transform:none;direction:ltr;block-progression:tb;writing-mode:lr-tb;text-anchor:start;baseline-shift:baseline;color:#000000;fill:#27303a;fill-opacity:0.75328081999999996;fill-rule:nonzero;stroke:none;stroke-width:1;marker:none;visibility:visible;display:inline;overflow:visible;enable-background:accumulate;font-family:Sans;-inkscape-font-specification:Sans"
       inkscape:connector-curvature="0" />
    <path
       style="font-size:medium;font-style:normal;font-variant:normal;font-weight:normal;font-stretch:normal;text-indent:0;text-align:start;text-decoration:none;line-height:normal;letter-spacing:normal;word-spacing:normal;text-transform:none;direction:ltr;block-progression:tb;writing-mode:lr-tb;text-anchor:start;baseline-shift:baseline;color:#000000;fill:#f1f3f5;fill-opacity:0.90288714000000003;fill-rule:nonzero;stroke:none;stroke-width:2;marker:none;visibility:visible;display:inline;overflow:visible;enable-background:accumulate;font-family:Sans;-inkscape-font-specification:Sans"
       d="m 12,2.84375 c -3.6591,0 -6.65625,2.99715 -6.65625,6.65625 0,1.4343 0.5385,2.7291 1.3125,3.8125 L 5.125,19.21875 4.84375,20.3125 5.9375,20.59375 6.25,19.5 7.90625,13.15625 C 7.03595,12.18325 6.5,10.908 6.5,9.5 6.5,6.4624 8.9624,4 12,4 c 3.0376,0 5.5,2.4624 5.5,5.5 0,1.408 -0.53605,2.68325 -1.40625,3.65625 l 1.8125,6.34375 0.3125,1.09375 1.125,-0.28125 L 19,19.1875 17.3125,13.3125 C 18.0921,12.2267 18.65625,10.9402 18.65625,9.5 18.65625,5.8409 15.6591,2.84375 12,2.84375 z M 10,8 C 9.1716,8 8.5,8.6716 8.5,9.5 8.5,10.3284 9.1716,11 10,11 10.8284,11 11.5,10.3284 11.5,9.5 11.5,8.6716 10.8284,8 10,8 z m 4,0 c -0.8284,0 -1.5,0.6716 -1.5,1.5 0,0.8284 0.6716,1.5 1.5,1.5 0.8284,0 1.5,-0.6716 1.5,-1.5 C 15.5,8.6716 14.8284,8 14,8 z M 10.5,9 C 10.7761,9 11,9.2239 11,9.5 11,9.7761 10.7761,10 10.5,10 10.323229,10 10.182665,9.8884971 10.09375,9.75 10.077506,9.7269073 10.054383,9.703952 10.03125,9.6875 9.9489984,9.629004 9.84375,9.6027122 9.84375,9.5 c 0,-0.1027122 0.1052692,-0.129004 0.1875,-0.1875 C 10.04236,9.286239 10.07851,9.273742 10.09375,9.25 10.182665,9.1115029 10.323229,9 10.5,9 z m 4,0 C 14.7761,9 15,9.2239 15,9.5 15,9.7761 14.7761,10 14.5,10 14.323229,10 14.182665,9.8884971 14.09375,9.75 14.077506,9.7269073 14.054383,9.703952 14.03125,9.6875 13.948998,9.629004 13.84375,9.6027122 13.84375,9.5 c 0,-0.1027122 0.105269,-0.129004 0.1875,-0.1875 C 14.04236,9.286239 14.07851,9.273742 14.09375,9.25 14.182665,9.1115029 14.323229,9 14.5,9 z M 10,14.59375 8.75,22 10,22 11,14.90625 z m 4,0 -1,0.3125 1,7.09375 1.25,0 z"
       transform="translate(-9368.675,1536.5613)"
       id="path3790"
       inkscape:connector-curvature="0"
       sodipodi:nodetypes="ssccccccsssccccccssssssssssssssscssccsssscssccscccccccccc" />
  </g>
</svg>
